!!!ONR: No. 6
!! Transcription 6
!!!OTL: Tres pollitos
!!!SINGER: Catalina Vesga Fontalvo.
!!!PLACE: South America, Colombia, Evitar
!!!DATE: 1968 August 4
!! From George List, "Music and Poetry in a Colombian Village:
!! A Tri-Cultural Heritage"
!! Bloomington, Indiana: Indiana University Press, 1983
**kern
*clefG2
*k[f#]
*M2/4
*MM104
{8b
=
8b
8cc
8dd
8dd
=
16gg
8gg
16gg
8ee
8ee}
=
{16ff#
8ff#
16ff#
8dd
8dd
=
16cc#
8b
16cc#
8dd
8dd}
=
{16b
8b
16ccn
8dd
8dd
=
16gg
8gg
16gg
8ee
8ee}
=
{16ff#
8ff#
16ff#
8dd
8cc#
=
8ccn
16b
16b
8a}
8r
=
{8dd
8dd
8.dd
16b
=
8dd
8dd
8dd}
16r
{16b
=
8ee
8ee
8ee
8ee
=
8ff#
8ff#
8ff#}
8r
=
{8dd
8dd
8dd
8dd
=
8dd
8dd
8dd
8dd}
=
{8ff#
8ff#
8ee
8ee
=
8ee
8r
8ee
8ee}
=
{8aa
8gg
8gg
8gg
=
8gg
8gg
8gg
16dd
16dd
=
8ee
8ff#
8gg}
8r
=
8r
{16aa
16aa
8aa
8gg
=
8ff#
8ee
8dd}
8r
=
8r
{16dd
16dd
8dd
8dd
=
8ee
8ff#
8gg}
8r
==
*-
